src/topics/icons/hyperapp.svg

<svg height="217" preserveAspectRatio="xMidYMid" viewBox="0 0 256 217" width="256" xmlns="http://www.w3.org/2000/svg"><path d="m223.733134 43.3036863h-138.248736l15.762596-43.3036863h-46.0829117l-55.1640823 151.562447h46.081092l23.6434397-64.9550744h138.2450963l-7.880843 21.6513884h-115.0830618l-23.7035015 64.955074v.00091c-1.2876897 3.536369-1.94655 7.272035-1.94655 11.035911 0 17.700956 14.5659095 32.266866 32.2668657 32.266866h69.0611216l15.761686-43.303687h-69.061121l7.941815-21.651388h69.001059l-7.880843 21.651388h46.082912l31.524283-86.6064624v-.00091c1.28769-3.5363691 1.94655-7.2720344 1.94655-11.0359105 0-17.7009563-14.565909-32.2668658-32.266866-32.2668658z" fill="#00b0ff"/></svg>

<?xml version="1.0" encoding="UTF-8"?>
<svg width="256px" height="217px" viewBox="0 0 256 217" version="1.1" xmlns="http://www.w3.org/2000/svg" xmlns:xlink="http://www.w3.org/1999/xlink" preserveAspectRatio="xMidYMid">
    <g>
        <path d="M223.733134,43.3036863 L85.484398,43.3036863 L101.246994,0 L55.1640823,0 L0,151.562447 L46.081092,151.562447 L69.7245317,86.6073726 L207.969628,86.6073726 L200.088785,108.258761 L85.0057232,108.258761 L61.3022217,173.213835 L61.3022217,173.214745 C60.014532,176.751114 59.3556717,180.48678 59.3556717,184.250656 C59.3556717,201.951612 73.9215812,216.517522 91.6225374,216.517522 L160.683659,216.517522 L176.445345,173.213835 L107.384224,173.213835 L115.326039,151.562447 L184.327098,151.562447 L176.446255,173.213835 L222.529167,173.213835 L254.05345,86.6073726 L254.05345,86.6064626 C255.34114,83.0700935 256,79.3344282 256,75.5705521 C256,57.8695958 241.434091,43.3036863 223.733134,43.3036863 Z" fill="#00B0FF"></path>
    </g>
</svg>
